X:8
T:Boys of Wexford
S:Bernie Waugh
R:Reel
M:4/4
L:1/8
K:G
|:D2|\
"G"G3A ~GFED|"D"d3e d2"C"c2|"G"B2G>A BAGF|"Em"E4- "C"EDEF|
"G"G3A ~GFED|"D"d3e d2"C"c2|"G"B2G>A "D"BAGF|"G"G6:|
|:d2|\
"C"e2c2 g2e2|"Bm"d>cBc d3d|"Am"c2c>d ~cBAG|"C"E3F "D"~EDEF|
"G"G3A ~GFED|"D"d3e d2"C"c2|"G"B2G>A "D"BAGF|"G"G6:|

